blacklist/src/assets/svg/logo.svg

<svg width="126" height="31" viewBox="0 0 126 31" fill="none" xmlns="http://www.w3.org/2000/svg">
  <path d="M18.3364 18L22.5864 3.625L27.1177 18H29.3052L34.4614 0.8125H32.4302L28.2114 15.25L23.7427 0.8125H21.6489L17.3052 15.25L12.9927 0.8125H10.7427L16.1489 18H18.3364ZM44.1909 0.625C45.8784 0.625 47.3159 1 48.5034 1.75C49.7118 2.47917 50.6493 3.47917 51.3159 4.75C51.9826 6.20833 52.3159 7.76042 52.3159 9.40625C52.3159 11.0938 51.9826 12.6354 51.3159 14.0313C50.6493 15.3229 49.7118 16.3438 48.5034 17.0938C47.3159 17.8438 45.8784 18.2188 44.1909 18.2188C42.5034 18.2188 41.0659 17.8438 39.8784 17.0938C38.7118 16.3438 37.7951 15.3229 37.1284 14.0313C36.4618 12.8229 36.1284 11.2813 36.1284 9.40625C36.1284 7.57292 36.4618 6.02083 37.1284 4.75C37.7951 3.47917 38.7118 2.47917 39.8784 1.75C41.0659 1 42.5034 0.625 44.1909 0.625ZM44.1909 16.4063C45.5034 16.4063 46.5555 16.1042 47.3472 15.5C48.1597 14.875 48.8055 14.0312 49.2847 12.9687C49.7847 11.9271 50.0347 10.7396 50.0347 9.40625C50.0347 8.09375 49.7847 6.90625 49.2847 5.84375C48.2222 3.57292 46.5243 2.4375 44.1909 2.4375C42.8993 2.4375 41.8576 2.75 41.0659 3.375C40.2743 3.97917 39.6284 4.80208 39.1284 5.84375C38.6493 6.80208 38.4097 7.98958 38.4097 9.40625C38.4097 10.8438 38.6493 12.0313 39.1284 12.9687C39.6284 14.0312 40.2743 14.875 41.0659 15.5C41.8576 16.1042 42.8993 16.4063 44.1909 16.4063ZM61.5737 18L65.8237 3.625L70.355 18H72.5425L77.6987 0.8125H75.6675L71.4487 15.25L66.98 0.8125H64.8862L60.5425 15.25L56.23 0.8125H53.98L59.3862 18H61.5737ZM93.4907 2.0625C92.6366 1.5625 91.7511 1.1875 90.8345 0.9375C89.9386 0.6875 88.9386 0.5625 87.8345 0.5625C86.2303 0.5625 84.7928 0.947917 83.522 1.71875C82.272 2.44792 81.2616 3.48958 80.4907 4.84375C79.7407 6.19792 79.3657 7.76042 79.3657 9.53125C79.3657 11.1146 79.7303 12.5833 80.4595 13.9375C81.147 15.25 82.1261 16.3021 83.397 17.0938C84.6678 17.8646 86.0845 18.25 87.647 18.25C89.1886 18.25 90.5741 17.9687 91.8032 17.4063C92.7616 16.9896 93.5636 16.4583 94.2095 15.8125V8.90625H87.3657V10.5938H92.3032V15.1563C91.8241 15.5521 91.2199 15.8646 90.4907 16.0937C89.7824 16.3229 89.0845 16.4375 88.397 16.4375C87.7303 16.4375 87.1261 16.3646 86.5845 16.2188C86.0428 16.0521 85.4699 15.8021 84.8657 15.4687C83.8866 14.9063 83.1053 14.1042 82.522 13.0625C81.9386 12 81.647 10.7708 81.647 9.375C81.647 8.08333 81.8866 6.92708 82.3657 5.90625C82.8449 4.88542 83.5949 4.04167 84.6157 3.375C85.6574 2.70833 86.7928 2.375 88.022 2.375C88.7511 2.375 89.5428 2.48958 90.397 2.71875C91.272 2.94792 92.0324 3.22917 92.6782 3.5625L93.4907 2.0625ZM105.031 0.625C106.718 0.625 108.156 1 109.343 1.75C110.552 2.47917 111.489 3.47917 112.156 4.75C112.822 6.20833 113.156 7.76042 113.156 9.40625C113.156 11.0938 112.822 12.6354 112.156 14.0313C111.489 15.3229 110.552 16.3438 109.343 17.0938C108.156 17.8438 106.718 18.2188 105.031 18.2188C103.343 18.2188 101.906 17.8438 100.718 17.0938C99.5516 16.3438 98.6349 15.3229 97.9683 14.0313C97.3016 12.8229 96.9683 11.2813 96.9683 9.40625C96.9683 7.57292 97.3016 6.02083 97.9683 4.75C98.6349 3.47917 99.5516 2.47917 100.718 1.75C101.906 1 103.343 0.625 105.031 0.625ZM105.031 16.4063C106.343 16.4063 107.395 16.1042 108.187 15.5C109 14.875 109.645 14.0312 110.125 12.9687C110.625 11.9271 110.875 10.7396 110.875 9.40625C110.875 8.09375 110.625 6.90625 110.125 5.84375C109.062 3.57292 107.364 2.4375 105.031 2.4375C103.739 2.4375 102.697 2.75 101.906 3.375C101.114 3.97917 100.468 4.80208 99.9683 5.84375C99.4891 6.80208 99.2495 7.98958 99.2495 9.40625C99.2495 10.8438 99.4891 12.0313 99.9683 12.9687C100.468 14.0312 101.114 14.875 101.906 15.5C102.697 16.1042 103.739 16.4063 105.031 16.4063Z" fill="white"/>
  <rect x="9" y="24" width="116" height="1" fill="white"/>
  <rect y="27" width="115" height="1" fill="white"/>
  <rect x="10" y="30" width="116" height="1" fill="white"/>
</svg>

<svg width="126" height="31" fill="none" xmlns="http://www.w3.org/2000/svg">
  <path d="M18.336 18l4.25-14.375L27.118 18h2.187L34.461.812h-2.03L28.21 15.25 23.743.812h-2.094L17.305 15.25 12.993.812h-2.25L16.149 18h2.187zM44.191.625c1.687 0 3.125.375 4.312 1.125a7.505 7.505 0 012.813 3c.667 1.458 1 3.01 1 4.656 0 1.688-.333 3.23-1 4.625a7.673 7.673 0 01-2.813 3.063c-1.187.75-2.625 1.125-4.312 1.125-1.688 0-3.125-.375-4.313-1.125-1.166-.75-2.083-1.771-2.75-3.063-.666-1.208-1-2.75-1-4.625 0-1.833.334-3.385 1-4.656.667-1.27 1.584-2.27 2.75-3C41.066 1 42.503.625 44.191.625zm0 15.781c1.312 0 2.364-.302 3.156-.906.813-.625 1.459-1.469 1.938-2.531.5-1.042.75-2.23.75-3.563 0-1.312-.25-2.5-.75-3.562-1.063-2.271-2.76-3.407-5.094-3.407-1.292 0-2.333.313-3.125.938-.792.604-1.438 1.427-1.938 2.469-.479.958-.718 2.146-.718 3.562 0 1.438.24 2.625.718 3.563.5 1.062 1.146 1.906 1.938 2.531.792.604 1.833.906 3.125.906zM61.574 18l4.25-14.375L70.355 18h2.188L77.699.812h-2.031l-4.22 14.438L66.98.812h-2.094L60.543 15.25 56.23.812h-2.25L59.386 18h2.188zM93.49 2.062c-.854-.5-1.74-.874-2.656-1.124-.896-.25-1.896-.375-3-.375-1.605 0-3.042.385-4.313 1.156-1.25.729-2.26 1.77-3.031 3.125-.75 1.354-1.125 2.916-1.125 4.687 0 1.584.364 3.052 1.094 4.406a8.072 8.072 0 002.937 3.157c1.27.77 2.688 1.156 4.25 1.156 1.542 0 2.927-.281 4.156-.844.959-.416 1.76-.948 2.407-1.593V8.905h-6.844v1.688h4.937v4.562c-.479.396-1.083.709-1.812.938a6.774 6.774 0 01-2.094.343c-.667 0-1.27-.072-1.813-.218a9.176 9.176 0 01-1.718-.75c-.98-.563-1.76-1.365-2.344-2.406-.583-1.063-.875-2.292-.875-3.688 0-1.292.24-2.448.719-3.469.479-1.02 1.229-1.864 2.25-2.531a6.196 6.196 0 013.406-1c.73 0 1.52.115 2.375.344.875.229 1.635.51 2.281.844l.813-1.5zM105.03.625c1.687 0 3.125.375 4.312 1.125a7.505 7.505 0 012.813 3c.666 1.458 1 3.01 1 4.656 0 1.688-.334 3.23-1 4.625a7.673 7.673 0 01-2.813 3.063c-1.187.75-2.625 1.125-4.312 1.125-1.688 0-3.125-.375-4.313-1.125-1.166-.75-2.083-1.771-2.75-3.063-.666-1.208-1-2.75-1-4.625 0-1.833.334-3.385 1-4.656.667-1.27 1.584-2.27 2.75-3 1.188-.75 2.625-1.125 4.313-1.125zm0 15.781c1.312 0 2.364-.302 3.156-.906.813-.625 1.458-1.469 1.938-2.531.5-1.042.75-2.23.75-3.563 0-1.312-.25-2.5-.75-3.562-1.063-2.271-2.761-3.407-5.094-3.407-1.292 0-2.334.313-3.125.938-.792.604-1.438 1.427-1.938 2.469-.479.958-.719 2.146-.719 3.562 0 1.438.24 2.625.72 3.563.499 1.062 1.145 1.906 1.937 2.531.791.604 1.833.906 3.125.906zM9 24h116v1H9zM0 27h115v1H0zM10 30h116v1H10z" fill="#fff"/>
</svg>
